icons/Bevy-Dark.svg

<svg width="256" height="256" viewBox="0 0 256 256" fill="none" xmlns="http://www.w3.org/2000/svg">
<rect width="256" height="256" rx="60" fill="#242938"/>
<path d="M200.778 121.534C200.761 121.534 200.745 121.534 200.728 121.534C199.684 124.801 198.876 128.35 198.723 132.392C198.434 139.983 199.205 144.602 198.331 149.519C197.458 154.436 194.875 159.276 188.305 166.866C180.484 175.9 168.09 182.891 153.775 185.254C151.11 186.955 148.298 188.514 145.339 189.901C156.482 194.096 168.135 194.324 177.373 191.293C193.647 185.952 192.387 182.116 199.679 170.942C201.977 167.421 204.629 164.734 207.293 162.527C214.882 165.836 222.357 167.961 227.014 167.434C229.518 161.629 226.953 154.897 222.691 148.533C226.187 137.673 220.882 126.799 209.132 122.954C206.067 121.952 203.313 121.48 200.778 121.529L200.778 121.534ZM209.592 137.479C210.238 137.465 210.877 137.591 211.465 137.848C212.052 138.105 212.575 138.486 212.997 138.966C213.382 139.404 213.676 139.914 213.861 140.469C214.046 141.024 214.119 141.611 214.075 142.198C214.032 142.785 213.873 143.36 213.609 143.889C213.344 144.419 212.978 144.894 212.531 145.286C211.631 146.078 210.458 146.486 209.272 146.421C208.086 146.355 206.983 145.822 206.205 144.938C205.82 144.501 205.527 143.99 205.342 143.435C205.157 142.881 205.084 142.293 205.128 141.707C205.171 141.12 205.329 140.545 205.594 140.015C205.859 139.485 206.225 139.011 206.671 138.619C207.483 137.905 208.52 137.501 209.592 137.479ZM136.767 185.811C136.902 185.891 137.041 185.961 137.177 186.04C137.316 185.988 137.458 185.933 137.597 185.88C137.32 185.855 137.044 185.838 136.767 185.811Z" fill="#787878"/>
<path d="M142.322 54.0004C135.96 53.9631 129.437 56.5012 123.831 61.9449C116.468 69.0945 114.181 75.5306 115.472 83.5607L115.826 85.7637L113.625 85.4059C97.4489 82.7848 77.4284 84.1089 54.6501 93.3233C61.346 96.1935 73.6362 100.984 87.2746 107.534L91.5994 109.612L86.8981 110.564C68.8888 114.215 47.5188 124.759 28 147.772C36.7317 147.093 54.5772 144.993 73.1892 145.022C83.5353 145.038 93.7315 145.753 102.038 147.907C110.345 150.061 117.894 154.99 118.958 158.601C120.022 162.213 119.418 164.114 118.37 166.939C117.322 169.764 114.1 174.056 109.642 176.889C105.184 179.722 99.5275 182.198 93.6508 184.303C81.8974 188.512 69.3883 191.202 63.8658 191.715C62.692 191.824 62.2234 192.246 61.771 193.067C61.3187 193.888 61.0692 195.179 61.0325 196.529C60.9835 198.331 61.2636 199.272 61.7726 199.986C62.2816 200.7 63.0766 200.985 63.8957 201.041C98.5986 203.389 124.546 194.66 143.392 187.182C165.067 177.244 178.767 157.618 181.741 139.948C183.605 128.876 183.205 123.45 181.408 118.829C179.611 114.208 176.166 110.105 171.795 102.268C168.987 97.2326 167.42 92.2917 166.449 87.69L166.243 86.7206L167.017 86.1007C175.048 79.6627 181.588 72.6333 183.963 67.5158C179.091 62.3343 170.672 61.2393 161.253 62.2465L160.479 62.3274L159.934 61.772C154.915 56.6589 148.685 54.0382 142.322 54.0004ZM145.143 65.9639C147.905 65.9202 150.341 67.8348 151.003 70.5675C151.781 73.7858 149.851 77.014 146.693 77.7776C143.534 78.5419 140.342 76.5526 139.564 73.3342C138.785 70.116 140.715 66.8878 143.874 66.1241C144.29 66.024 144.715 65.9702 145.143 65.9639Z" fill="#ECECEC"/>
<path d="M184.657 79.9777C182.622 79.9361 180.491 80.1502 178.289 80.6517C178.141 80.6858 178.011 80.7272 177.865 80.7619C175.443 83.1563 172.739 85.5598 169.845 87.9159C170.777 92.0268 172.16 96.3119 174.607 100.699C178.854 108.314 182.355 112.378 184.409 117.661C186.464 122.944 186.821 129.158 184.915 140.48C182.552 154.515 174.008 169.378 160.461 180.35C170.976 177.283 179.938 171.625 185.872 164.771C192.276 157.372 194.413 153.187 195.162 148.969C195.911 144.752 195.209 140.129 195.507 132.286C195.7 127.232 196.776 122.811 198.145 118.924L198.474 117.992L199.456 117.863C208.22 116.726 216.141 114.49 220.235 111.847C218.92 105.933 213.333 101.345 205.934 97.8574L205.228 97.5246L205.052 96.7653C202.705 86.6881 194.837 80.1891 184.657 79.9777ZM189.751 92.4238C190.275 92.4233 190.795 92.504 191.293 92.663C192.59 93.0779 193.667 94.0007 194.286 95.2287C194.904 96.4568 195.015 97.8896 194.592 99.2116C194.383 99.8664 194.049 100.474 193.61 101C193.171 101.527 192.635 101.961 192.033 102.279C191.43 102.597 190.774 102.792 190.1 102.853C189.426 102.913 188.748 102.839 188.106 102.634C186.808 102.219 185.732 101.296 185.113 100.068C184.494 98.8396 184.384 97.4071 184.807 96.085C185.146 95.0242 185.808 94.0972 186.697 93.4387C187.587 92.7802 188.656 92.4247 189.751 92.4238Z" fill="#B2B2B2"/>
</svg>

<svg xmlns="http://www.w3.org/2000/svg" width="256" height="256" fill="none" viewBox="0 0 256 256"><rect width="256" height="256" fill="#242938" rx="60"/><path fill="#787878" d="M200.78 121.53h-.05a40 40 0 0 0-2 10.86c-.3 7.6.48 12.21-.4 17.13-.87 4.92-3.46 9.76-10.03 17.35-7.82 9.03-20.21 16.02-34.53 18.38a74 74 0 0 1-8.43 4.65c11.14 4.2 22.8 4.42 32.03 1.4 16.28-5.35 15.02-9.18 22.3-20.36 2.3-3.52 4.96-6.2 7.62-8.41 7.6 3.3 15.07 5.43 19.72 4.9 2.5-5.8-.06-12.53-4.32-18.9 3.5-10.86-1.8-21.73-13.56-25.58q-4.57-1.5-8.35-1.42m8.81 15.95a4.4 4.4 0 0 1 3.4 1.49 4.4 4.4 0 0 1 1.08 3.23 4.5 4.5 0 0 1-1.54 3.09c-.9.79-2.07 1.2-3.26 1.13a4.4 4.4 0 0 1-3.68-6.4 4.6 4.6 0 0 1 4-2.54m-72.82 48.33.4.23.43-.16z"/><path fill="#ECECEC" d="M142.32 54c-6.36-.04-12.88 2.5-18.49 7.94-7.36 7.15-9.65 13.6-8.36 21.62l.36 2.2-2.2-.35c-16.18-2.63-36.2-1.3-58.98 7.91 6.7 2.87 18.99 7.66 32.62 14.21l4.33 2.08-4.7.95c-18.01 3.66-39.38 14.2-58.9 37.21 8.73-.68 26.58-2.78 45.19-2.75 10.35.02 20.54.73 28.85 2.89 8.3 2.15 15.85 7.08 16.92 10.7 1.06 3.6.46 5.5-.59 8.33-1.05 2.82-4.27 7.12-8.73 9.95s-10.11 5.3-15.99 7.41c-11.75 4.21-24.26 6.9-29.78 7.41-1.18.11-1.65.54-2.1 1.36s-.7 2.1-.74 3.46c-.05 1.8.23 2.74.74 3.46s1.3 1 2.13 1.05c34.7 2.35 60.65-6.38 79.5-13.86 21.67-9.94 35.37-29.56 38.34-47.23 1.86-11.07 1.47-16.5-.33-21.12s-5.24-8.72-9.62-16.56a51 51 0 0 1-5.34-14.58l-.2-.97.77-.62c8.03-6.44 14.57-13.47 16.94-18.58-4.87-5.19-13.29-6.28-22.7-5.27l-.78.08-.55-.56c-5.02-5.11-11.25-7.73-17.6-7.77m2.82 11.96a6 6 0 0 1 5.86 4.6 5.94 5.94 0 0 1-4.3 7.22 5.94 5.94 0 0 1-7.14-4.45 5.94 5.94 0 0 1 5.58-7.37"/><path fill="#B2B2B2" d="M184.66 79.98q-3.06-.07-6.37.67l-.42.11q-3.66 3.61-8.03 7.16c.94 4.1 2.32 8.4 4.77 12.78 4.24 7.61 7.74 11.68 9.8 16.96 2.05 5.28 2.41 11.5.5 22.82-2.36 14.03-10.9 28.9-24.45 39.87 10.52-3.07 19.48-8.72 25.41-15.58 6.4-7.4 8.54-11.58 9.3-15.8.74-4.22.04-8.84.34-16.68a45 45 0 0 1 2.64-13.37l.32-.93.99-.13c8.76-1.13 16.68-3.37 20.78-6.01-1.32-5.92-6.9-10.5-14.3-14l-.71-.33-.18-.75c-2.34-10.08-10.21-16.58-20.4-16.8m5.1 12.44a5 5 0 0 1 4.53 2.8 5.3 5.3 0 0 1-4.19 7.63 5.1 5.1 0 0 1-4.99-2.78 5.28 5.28 0 0 1 4.64-7.65"/></svg>
